X: 140
T: Paddy Lie Back
M:6/8
R:jig
L:1/8
Z:added by Alf 
K:D
A2A|d3 f3|e2d c2B|AF6-|F2 A3|\
d3 f3|e2d c2d|e6-|e3 A3|
d3 f3|e2d c2B|AF6-|F2 A3|\
f3 f2f|g2e d2c|d6-|d3 ABc|
d3 ABc|d3 ABc|d3 ABc|d3 A2B|\
d2d d2d|d2B c2d|e6-|e3 A3|
d3 f3|e2d c2B|AF6-|F2 d3|\
f2f f2f|g2e d2c|d6-|d6|]
